svg/u1f3e0.svg

<svg viewBox="0 0 128 128" xmlns="http://www.w3.org/2000/svg">
  <polygon points="19.16,48.94 19.16,28.58 17.52,28.68 17.52,16.14 33.34,16.04 33.34,28.39 31.7,28.39 31.7,40.35 " fill="#AB5832"/>
  <polygon points="64.11,23.33 18.67,68.99 19.02,111.2 108.77,110.35 108.9,65.35 " fill="#FFF3E1"/>
  <path d="M16.97,103.79l3.14-1.73V67.98l-2.92,1.95C17.18,69.93,17.51,103.79,16.97,103.79z" fill="#5F4E47"/>
  <polygon points="107.2,69.82 107.2,101.85 110.34,103.58 110.34,71.01 " fill="#5F4E47"/>
  <polygon points="64.42,28.21 17.18,72.42 17.18,61.27 64.47,16.48 110.34,63.98 110.34,73.39 " fill="#BCAA93"/>
  <path d="M12.55,59.36l-2.77,5.11l7.43-0.11c0,0,46.35-45.08,47.35-45.12c1.21-0.05,45.76,45.91,45.76,45.91 l6.59-0.1L67.47,11.79l-7.26-0.48L12.55,59.36z" fill="#AB5832"/>
  <path d="M4,63.19c-0.78,0.95-0.01,1.45,0.62,1.45s7.89-0.21,7.89-0.21l50.04-48.69c0,0,1.15-1.18,1.97-1.14 c0.89,0.04,2.04,1.17,2.04,1.17l50.28,49.29c0,0,5.73,0.02,6.64-0.21c0.99-0.24,0.49-1.18-0.73-2.49 c-0.9-0.97-51.73-51.25-52.57-52.12c-2.5-2.58-3.72-4.08-6.08-3.98c-2.37,0.1-3.77,1.85-6.14,4.03C57.26,10.95,4.33,62.79,4,63.19z" fill="#ED6C31"/>
  <g>
    <path d="M93.5,80.83h10.25V72.3c0-1.59-1.29-2.87-2.87-2.87H93.5V80.83z" fill="#A6CFD5"/>
    <path d="M90.42,80.83V69.43h-8c-1.59,0-2.87,1.29-2.87,2.87v8.54H90.42z" fill="#A6CFD5"/>
    <path d="M90.42,84.07H79.55v8c0,1.59,1.29,2.87,2.87,2.87h8V84.07z" fill="#A6CFD5"/>
    <path d="M93.5,84.07v10.87h7.38c1.59,0,2.87-1.29,2.87-2.87v-8H93.5z" fill="#A6CFD5"/>
  </g>
  <g>
    <path d="M36.75,80.83H47V72.3c0-1.59-1.29-2.87-2.87-2.87h-7.38V80.83z" fill="#A6CFD5"/>
    <path d="M33.66,80.83V69.43h-8c-1.59,0-2.87,1.29-2.87,2.87v8.54H33.66z" fill="#A6CFD5"/>
    <path d="M33.66,84.07H22.8v8c0,1.59,1.29,2.87,2.87,2.87h8V84.07z" fill="#A6CFD5"/>
    <path d="M36.75,84.07v10.87h7.38c1.59,0,2.87-1.29,2.87-2.87v-8H36.75z" fill="#A6CFD5"/>
  </g>
  <path d="M50.34,106.73c0,0-0.15-24.74,0-30.99c0.15-6.24,6.01-11.64,12.8-11.41 c8.4,0.29,12.72,5.01,13.03,11.1c0.31,6.09,0.31,31.68,0.31,31.68L50.34,106.73z" fill="#D27857"/>
  <path d="M53.47,108.07c0,0-0.12-26.36,0-31.24c0.15-6.05,4.71-9.23,10.01-8.93c6.17,0.35,9.22,3.63,9.46,8.4 c0.24,4.76,0.24,31.79,0.24,31.79L53.47,108.07z" fill="#AB5932"/>
  <g>
    <path d="M69.99,86.58c-0.02-4.34-0.06-8.17-0.12-9.34c-0.16-3.15-2.4-5.6-6.75-5.75 c-3.51-0.12-6.4,2.62-6.48,5.85c-0.03,1.19-0.02,4.93,0,9.19L69.99,86.58z" fill="#D27857"/>
    <path d="M56.67,91.45c0.04,5.81,0.09,11.16,0.09,11.16l13.27,0.04c0,0,0-5.33-0.02-11.14L56.67,91.45z" fill="#D27857"/>
  </g>
  <path d="M70.03,88.81c-0.05,1.41,0.52,2.55,2.19,2.55c1.67,0,2.28-0.78,2.4-2.29c0.1-1.35-0.83-2.55-2.4-2.45 C70.66,86.73,70.07,87.82,70.03,88.81z" fill="#FFBA02"/>
  <path d="M79.61,116.31c0,0,10.88,0.11,18.74-0.12c7.86-0.23,13.55,0.12,14.72-1.06 c1.17-1.17,1.15-11.14-4.3-13.84c-5.01-2.48-8.25,0.04-9.97,0.21c-2.27,0.23-5.08-1.18-7.14-1.22c-8.51-0.18-11.49,6.51-11.49,6.51 L79.61,116.31z" fill="#728037"/>
  <path d="M14.53,115.49c0.91,0.85,7.86,0.88,16.25,0.82c8.39-0.06,15.14,0.02,15.14,0.02l1.4-8.47l-1.7-1.41 c0,0,0.19-4.24-5.16-5.69c-3.7-1-6.92,0.65-10.03,0.7c-3.11,0.06-5.98-1.35-9.44-0.53c-3.22,0.76-5.73,2.86-6.75,7.1 C13.53,110.97,13.71,114.72,14.53,115.49z" fill="#728037"/>
  <path d="M44.92,125.17l0.07-8.85h0.65l-0.01-9.86h34.73l-0.12,9.86h0.76v8.62 C80.99,124.93,44.92,125.22,44.92,125.17z" fill="#B0B0B0"/>
  <polygon points="80.99,121.3 80.99,124.93 44.91,125.17 44.94,121.27 " fill="#9B9B9B"/>
  <polygon points="45.62,112.48 80.27,112.49 80.27,116.31 45.62,116.31 " fill="#9B9B9B"/>
</svg>

<svg viewBox="0 0 128 128" xmlns="http://www.w3.org/2000/svg">
  <defs/>
  <path d="M19.16,48.94 L19.16,28.58 L17.52,28.68 L17.52,16.14 L33.34,16.04 L33.34,28.39 L31.7,28.39 L31.7,40.35 Z" fill="#AB5832"/>
  <path d="M64.11,23.33 L18.67,68.99 L19.02,111.2 L108.77,110.35 L108.9,65.35 Z" fill="#FFF3E1"/>
  <path d="M16.97,103.79 L20.11,102.06 L20.11,67.98 L17.19,69.93 C17.18,69.93 17.51,103.79 16.97,103.79 Z" fill="#5F4E47"/>
  <path d="M107.2,69.82 L107.2,101.85 L110.34,103.58 L110.34,71.01 Z" fill="#5F4E47"/>
  <path d="M64.42,28.21 L17.18,72.42 L17.18,61.27 L64.47,16.48 L110.34,63.98 L110.34,73.39 Z" fill="#BCAA93"/>
  <path d="M12.55,59.36 L9.78,64.47 L17.21,64.36 C17.21,64.36 63.56,19.28 64.56,19.24 C65.77,19.19 110.32,65.15 110.32,65.15 L116.91,65.05 L67.47,11.79 L60.21,11.31 L12.55,59.36 Z" fill="#AB5832"/>
  <path d="M4,63.19 C3.22,64.14 3.99,64.64 4.62,64.64 C5.25,64.64 12.51,64.43 12.51,64.43 L62.55,15.74 C62.55,15.74 63.7,14.56 64.52,14.6 C65.41,14.64 66.56,15.77 66.56,15.77 L116.84,65.06 C116.84,65.06 122.57,65.08 123.48,64.85 C124.47,64.61 123.97,63.67 122.75,62.36 C121.85,61.39 71.02,11.11 70.18,10.24 C67.68,7.66 66.46,6.16 64.1,6.26 C61.73,6.36 60.33,8.11 57.96,10.29 C57.26,10.95 4.33,62.79 4,63.19 Z" fill="#ED6C31"/>
  <path d="M93.5,80.83 L103.75,80.83 L103.75,72.3 C103.75,70.71 102.46,69.43 100.88,69.43 L93.5,69.43 L93.5,80.83 Z" fill="#A6CFD5"/>
  <path d="M90.42,80.83 L90.42,69.43 L82.42,69.43 C80.83,69.43 79.55,70.72 79.55,72.3 L79.55,80.84 L90.42,80.84 Z" fill="#A6CFD5"/>
  <path d="M90.42,84.07 L79.55,84.07 L79.55,92.07 C79.55,93.66 80.84,94.94 82.42,94.94 L90.42,94.94 L90.42,84.07 Z" fill="#A6CFD5"/>
  <path d="M93.5,84.07 L93.5,94.94 L100.88,94.94 C102.47,94.94 103.75,93.65 103.75,92.07 L103.75,84.07 L93.5,84.07 Z" fill="#A6CFD5"/>
  <path d="M36.75,80.83 L47,80.83 L47,72.3 C47,70.71 45.71,69.43 44.13,69.43 L36.75,69.43 L36.75,80.83 Z" fill="#A6CFD5"/>
  <path d="M33.66,80.83 L33.66,69.43 L25.66,69.43 C24.07,69.43 22.79,70.72 22.79,72.3 L22.79,80.84 L33.66,80.84 Z" fill="#A6CFD5"/>
  <path d="M33.66,84.07 L22.8,84.07 L22.8,92.07 C22.8,93.66 24.09,94.94 25.67,94.94 L33.67,94.94 L33.67,84.07 Z" fill="#A6CFD5"/>
  <path d="M36.75,84.07 L36.75,94.94 L44.13,94.94 C45.72,94.94 47,93.65 47,92.07 L47,84.07 L36.75,84.07 Z" fill="#A6CFD5"/>
  <path d="M50.34,106.73 C50.34,106.73 50.19,81.99 50.34,75.74 C50.49,69.5 56.35,64.1 63.14,64.33 C71.54,64.62 75.86,69.34 76.17,75.43 C76.48,81.52 76.48,107.11 76.48,107.11 L50.34,106.73 Z" fill="#D27857"/>
  <path d="M53.47,108.07 C53.47,108.07 53.35,81.71 53.47,76.83 C53.62,70.78 58.18,67.6 63.48,67.9 C69.65,68.25 72.7,71.53 72.94,76.3 C73.18,81.06 73.18,108.09 73.18,108.09 L53.47,108.07 Z" fill="#AB5932"/>
  <path d="M69.99,86.58 C69.97,82.24 69.93,78.41 69.87,77.24 C69.71,74.09 67.47,71.64 63.12,71.49 C59.61,71.37 56.72,74.11 56.64,77.34 C56.61,78.53 56.62,82.27 56.64,86.53 L69.99,86.58 Z" fill="#D27857"/>
  <path d="M56.67,91.45 C56.71,97.26 56.76,102.61 56.76,102.61 L70.03,102.65 C70.03,102.65 70.03,97.32 70.01,91.51 L56.67,91.45 Z" fill="#D27857"/>
  <path d="M70.03,88.81 C69.98,90.22 70.55,91.36 72.22,91.36 C73.89,91.36 74.5,90.58 74.62,89.07 C74.72,87.72 73.79,86.52 72.22,86.62 C70.66,86.73 70.07,87.82 70.03,88.81 Z" fill="#FFBA02"/>
  <path d="M79.61,116.31 C79.61,116.31 90.49,116.42 98.35,116.19 C106.21,115.96 111.9,116.31 113.07,115.13 C114.24,113.96 114.22,103.99 108.77,101.29 C103.76,98.81 100.52,101.33 98.8,101.5 C96.53,101.73 93.72,100.32 91.66,100.28 C83.15,100.1 80.17,106.79 80.17,106.79 L79.61,116.31 Z" fill="#728037"/>
  <path d="M14.53,115.49 C15.44,116.34 22.39,116.37 30.78,116.31 C39.17,116.25 45.92,116.33 45.92,116.33 L47.32,107.86 L45.62,106.45 C45.62,106.45 45.81,102.21 40.46,100.76 C36.76,99.76 33.54,101.41 30.43,101.46 C27.32,101.52 24.45,100.11 20.99,100.93 C17.77,101.69 15.26,103.79 14.24,108.03 C13.53,110.97 13.71,114.72 14.53,115.49 Z" fill="#728037"/>
  <path d="M44.92,125.17 L44.99,116.32 L45.64,116.32 L45.63,106.46 L80.36,106.46 L80.24,116.32 L81,116.32 L81,124.94 C80.99,124.93 44.92,125.22 44.92,125.17 Z" fill="#B0B0B0"/>
  <path d="M80.99,121.3 L80.99,124.93 L44.91,125.17 L44.94,121.27 Z" fill="#9B9B9B"/>
  <path d="M45.62,112.48 L80.27,112.49 L80.27,116.31 L45.62,116.31 Z" fill="#9B9B9B"/>
</svg>
